!!!SOCIAL_FUNCTION:	songs of medicine men's dance
!!!PDT:	1956
!!!OTL: No_24_Corn_Dance_Song_(n).krn
!!!LANG: Non-Tone
!!!LING_GROUP: Muskogean
!!!REG: Florida
**kern
*staff1
=1-
=
*clefF4
*k[b-]
*M2/4
8c\L
8A\J
8.c\L
16A\Jk
=2||
*M3/4
8c\L
16.d\L
32c\JJk
4A\
4A\
=3
8A\L
8A\J
8c\L
16A\L
16G\JJ
4G\
=4
16E\LL
16F\
16.E\
32E\JJk
4D\
8C/
8r
=5
8AA/L
8AA/J
8C/L
8AA/J
8.C/L
16AA/Jk
=6
8C/L
16.D/L
32C/JJk
4C/
4C/
=7
8C/L
8C/J
8D\L
8D\J
8.D/L
16C/Jk
=8
8E\L
16.E\L
32E\JJk
4D\
8C/
8r
=9
8AA/L
8AA/J
8C/L
8AA/J
8.C/L
16AA/Jk
=10||
*M2/4
8C/L
16.D/L
32C/JJk
4C/
=11
4AA/
12C/L
8C/
24C/Jk
=12:|!
4C/
4r
==
*-
